public/images/home/html5.svg

<svg width="91" height="60" viewBox="0 0 91 60" fill="none" xmlns="http://www.w3.org/2000/svg">
<g clip-path="url(#clip0)">
<path d="M91 23.3389H66.5294L68.8235 48.1911L78.7633 51.0073L88.7031 48.1911L91 23.3389Z" fill="#E6A329"/>
<path d="M78.7634 25.3636V48.9012L86.8169 46.6218L88.7762 25.3636H78.7634Z" fill="#F1BF22"/>
<path d="M85.1703 28.4125H72.7876L71.9251 37.7174L71.943 37.6596H82.4629L82.1198 41.5963L78.7633 42.5612L75.3573 41.5812L75.1534 39.1985H72.0615L72.5024 43.9597L78.7633 45.7354L85.027 43.9597L85.8896 34.6149H74.7249L74.8682 31.5013H82.6144L82.7302 33.2852H85.8496L85.1703 28.4125Z" fill="white"/>
<path d="M78.7661 28.4125H72.7876L71.9251 37.7174L71.943 37.6596H78.7661V34.6245H75.1603L75.3036 31.5109H78.7661V28.4125ZM75.1603 39.1985H72.0615L72.5024 43.957L78.7633 45.7299V42.564L75.3573 41.5812L75.1603 39.1985Z" fill="#EBEBEB"/>
<path d="M76.3838 19.6733H74.2054V21.2356H77.9421V16.5955H76.3838V19.6733ZM83.3226 16.6203H79.5253V18.2445C80.0323 18.7511 80.2969 18.9947 81.0436 19.7284H79.5253V21.2094H83.3226V19.7311L81.8042 18.2473H83.3226V16.6203Z" fill="#231F20"/>
</g>
<g clip-path="url(#clip1)">
<path d="M30.3667 24.8041L28.3588 48.0895C25.3832 50.3982 21.6466 51.7722 17.5883 51.7722C13.5301 51.7722 9.79352 50.3982 6.81788 48.0895L4.80994 24.8041H30.3667Z" fill="#006BC0"/>
<path d="M17.5885 26.993V51.3114L25.9891 48.9398L27.863 26.993H17.5885Z" fill="#0096DC"/>
<path d="M25.0104 36.505H18.9516L25.2826 33.283L25.5562 30.044H9.61908L9.89795 33.3463H16.2955L10.1572 36.4155L10.4428 39.7984H21.3924L21.0335 43.8274L17.5876 44.7607L13.9982 43.7556L13.9085 41.243H10.5648L10.9831 46.1965L17.5876 48.0629L24.1922 46.1965L25.0106 36.5045L25.0104 36.505Z" fill="white"/>
<path d="M11.3601 21.2142V18.917H14.6623V17.6727H10.1636V22.4585H14.6623V21.2142H11.3601Z" fill="#222123"/>
<path d="M16.5942 19.5451V18.9708H19.8786V18.917V17.6727H15.3798V20.6399H18.6043V21.2142H15.3798V22.4585H19.8786V21.2142V19.5451H16.5942Z" fill="#222123"/>
<path d="M21.7277 19.5451V18.9708H25.012V18.917V17.6727H20.5133V20.6399H23.7378V21.2142H20.5133V22.4585H25.012V21.2142V19.5451H21.7277Z" fill="#222123"/>
</g>
<path d="M70.5039 13.1047L67.0555 53.0948C61.9451 57.0598 55.5279 59.4196 48.5584 59.4196C41.6517 59.4196 35.2875 57.1017 30.1993 53.2008L26.7423 13.1047H70.5039Z" fill="#E64C18"/>
<path d="M48.6225 16.8536V58.495L63.0073 54.4341L66.2161 16.8536H48.6225Z" fill="#F36518"/>
<path d="M34.9789 22.0779L36.3895 38.7811H55.1388L54.5253 45.6809L48.6242 47.279L42.4781 45.5573L42.3238 41.2554H36.5987L37.3154 49.7367L48.6242 52.9327L59.9329 49.7367L61.3344 33.1416H41.5894L41.0994 27.733L41.0993 27.7328L61.8012 27.6243L62.2694 22.0779H34.9789Z" fill="white"/>
<path d="M36.1887 0.989258V3.85893H33.4468V0.989258H30.8961V9.21529H33.4468V6.53711H36.1887V9.21529H38.7395V0.989258H36.1887Z" fill="black"/>
<path d="M47.7945 0.989258H39.9508V3.85893H42.5016V9.27924H45.2437V3.85893H47.7945V0.989258Z" fill="black"/>
<path d="M62.3965 6.66455V1.0531H59.6543V6.66455V9.27925H62.3965H66.3499V6.66455H62.3965Z" fill="black"/>
<path d="M55.5111 1.0531L53.5982 3.98637L51.6851 1.0531H48.9431V9.27925H51.6851V5.19791L53.5982 8.13142L55.5111 5.19791V9.27925H58.2532V1.0531H55.5111Z" fill="black"/>
<defs>
<clipPath id="clip0">
<rect width="24.4706" height="34.4118" fill="white" transform="translate(66.5294 16.5955)"/>
</clipPath>
<clipPath id="clip1">
<rect width="35.1765" height="35.1765" fill="white" transform="translate(0 16.5955)"/>
</clipPath>
</defs>
</svg>

<svg xmlns="http://www.w3.org/2000/svg" fill="none" width="91" height="60"><g clip-path="url(#a)"><path d="M91 23.339H66.529l2.294 24.852 9.94 2.816 9.94-2.816L91 23.342z" fill="#e6a329"/><path d="M78.763 25.364v23.538l8.054-2.279 1.96-21.258H78.762z" fill="#f1bf22"/><path d="M85.17 28.413H72.788l-.862 9.305.018-.058h10.52l-.343 3.937-3.356.965-3.406-.98-.204-2.383h-3.092l.441 4.761 6.261 1.776 6.264-1.776.863-9.345H74.725l.143-3.114h7.746l.116 1.784h3.119l-.68-4.873z" fill="#fff"/><path d="M78.766 28.413h-5.978l-.862 9.305.018-.058h6.823v-3.035H75.16l.143-3.114h3.462v-3.098zM75.16 39.199h-3.1l.442 4.758 6.261 1.773v-3.166l-3.406-.983-.197-2.383z" fill="#ebebeb"/><path d="M76.384 19.673h-2.178v1.562h3.737v-4.64h-1.558v3.078zm6.939-3.053h-3.797v1.624l1.518 1.484h-1.518v1.48h3.797V19.73l-1.518-1.482h1.518V16.62z" fill="#231f20"/></g><g clip-path="url(#b)"><path d="M30.367 24.804 28.359 48.09c-2.976 2.309-6.712 3.683-10.77 3.683S9.791 50.399 6.82 48.09L4.81 24.804h25.557z" fill="#006bc0"/><path d="M17.589 26.993v24.318l8.401-2.372 1.874-21.947H17.589z" fill="#0096dc"/><path d="M25.01 36.505h-6.059l6.331-3.222.274-3.239H9.62l.278 3.302h6.398l-6.138 3.07.286 3.382h10.95l-.359 4.03-3.446.932-3.59-1.005-.09-2.513h-3.343l.418 4.953 6.604 1.866 6.605-1.866.818-9.692z" fill="#fff"/><path d="M11.36 21.214v-2.297h3.302v-1.244h-4.5v4.786h4.5v-1.244H11.36zm5.234-1.669v-.574h3.284v-1.298H15.38v2.967h3.224v.574H15.38v1.244h4.499v-2.913h-3.284zm5.134 0v-.574h3.284v-1.298h-4.499v2.967h3.224v.574h-3.224v1.244h4.499v-2.913h-3.284z" fill="#222123"/></g><path d="m70.504 13.105-3.448 39.99A30.069 30.069 0 0 1 48.56 59.42 30.066 30.066 0 0 1 30.2 53.2l-3.457-40.095h43.762z" fill="#e64c18"/><path d="M48.623 16.854v41.641l14.385-4.061 3.209-37.58H48.623z" fill="#f36518"/><path d="m34.979 22.078 1.411 16.703h18.749l-.614 6.9-5.901 1.598-6.146-1.722-.154-4.302h-5.725l.717 8.48 11.309 3.197 11.309-3.196 1.402-16.595H41.589l-.49-5.409 20.702-.108.468-5.546H34.98z" fill="#fff"/><path d="M36.189.989v2.87h-2.742V.989h-2.551v8.226h2.551V6.537h2.742v2.678h2.551V.989h-2.551zm11.606 0h-7.844v2.87h2.551v5.42h2.742v-5.42h2.551V.989zm14.602 5.676V1.053h-2.742v8.226h6.695V6.665h-3.953zm-6.886-5.612-1.909 2.933-1.913-2.933h-2.742V9.28h2.742V5.2L53.6 8.132l1.913-2.934V9.28h2.743V1.053h-2.742z" fill="#000"/><defs><clipPath id="a"><path d="M0 0h24.471v34.412H0z" fill="#fff" transform="translate(66.529 16.596)"/></clipPath><clipPath id="b"><path d="M0 0h35.176v35.176H0z" fill="#fff" transform="translate(0 16.596)"/></clipPath></defs></svg>
